svgs/1F618.svg

<svg xmlns="http://www.w3.org/2000/svg" xmlns:xlink="http://www.w3.org/1999/xlink" preserveAspectRatio="none" viewBox="0 0 72 72"><defs><path id="a" fill="#2F2F2F" d="M73.05 82.2q.45-2.3-.4-4.75-2.05-5.7-10.55-5.1-3.15.2-3.05 1.85.1 1.05 2.45 1.35 1.05.1 3.5.1 2.15.2 3.1 1.25.85.95 1 2.55.1 1.45-.4 2.7-.6 1.55-2.3 2.15-2.15.5-3.2 1-.9.4-.7 1.45.1.35.35.55.45.4 1.35.5.55.05 1.5.1 1.15.1 1.45.2.8.15 1.3.65.95.9 1.15 2.7.15 1.8-.55 2.95-.6 1-2.95 2.4-2.8 1.65-3.3 2.15-.75.7-1.15 1.55-.5 1.05.05 1.7.5.6 1.8.6 1.6 0 3.3-.95 1.85-1 3.8-3.3 1.85-2.2 2.75-4.2 1.9-4.1-1.05-7.85-.55-.7-.05-2.15.7-1.55.8-2.15z"/><path id="b" fill="#FCC21B" d="M127.2 93.45q0-27.05-8.45-47.2Q103.3 9.5 64 9.5q-39.35 0-54.8 36.75Q.75 66.4.75 93.45q0 10.4 18.5 17.75 18.55 7.35 44.75 7.35 26.15 0 44.7-7.35 18.5-7.35 18.5-17.75z"/><path id="c" fill="#2F2F2F" d="M85.95 48.6q5.85-1.9 11.1-2.65 1.1-.2 1.75-1.05.65-.85.5-1.95-.15-1.1-1.05-1.75-.85-.65-1.95-.5-3.55.55-7.9 1.7-8.7 2.25-14.35 5.65-.75.45-1.1 1.25-.3.85-.05 1.7t.95 1.4q.7.55 1.6.55.05 0 6.4.4 7.3.8 12.2 3l.6.15q.9.15 1.65-.25.85-.4 1.2-1.25.45-.95.05-2-.35-1.05-1.35-1.5-4.9-2.15-10.25-2.9z"/><path id="d" fill="#2F2F2F" d="M50 48.55q-.05-4-2.45-6.85-2.4-2.85-5.75-2.8-3.35.05-5.75 2.9-2.35 2.9-2.3 6.9.05 4 2.45 6.85 2.45 2.8 5.8 2.75 3.35-.05 5.7-2.9t2.3-6.85z"/><path id="e" fill="#2F2F2F" d="M75.25 81.85q-.05-3.5-2.8-5.75-1.45-1.2-4.05-1.6-2.4-.3-4.5.2-1.6.4-2.65 1.1-1.35.85-1.2 1.8.15.9 1.6 1.2.8.15 2.5.15 3.7 0 5.05 1.1.7.5.75 1.95.05.8-.7 1.75-1.05 1.35-3.2 1.85-1.1.3-1.75 1-.75.85-.45 1.85.4 1.25 1.8 1.5l.6.15q4.25.85 4.85 2.9.15.45 0 1.2-.2.7-.45 1-1.15 1.4-2.85 2.15-1.4.6-3.7.95-4.05.5-4 2.05.05 1 1.5 1.6 1.2.45 2.6.45 7.4 0 10.6-3.9 2.2-2.65 1.6-6.3-.45-2.7-3.85-4.8 2.8-2.7 2.7-5.55z"/><path id="f" fill="#D7598B" d="M60.25 38.6q-.6-2.1-1.3-3.25-.95-1.65-2.45-2.4-1.45-.7-3.35-.55-1.8.15-3.25 1-2.25 1.3-3.1 3.8-.75 2.3-.2 5.05.2.95.8 2.85.2.45 1 2.3.6 1.7.05 2.25-.05.05-.45.25-.3.1-.3.35.05.55.8 1 4.2 2.6 11.25 1.7 2.45-.3 4.7-1.45 2.55-1.3 3.7-3.2.95-1.5.95-3.3.05-1.85-.95-3.3-1.05-1.6-2.75-2.3-1.65-.7-3.45-.35-.75.15-1 .15-.5-.05-.7-.6z"/><path id="g" fill="none" stroke="#2F2F2F" stroke-linecap="round" stroke-linejoin="round" stroke-width="2" d="M23.8 17.4q-5.2 1.15-8 5.55"/></defs><use transform="scale(.5625)" xlink:href="#a"/><use transform="scale(.5625)" xlink:href="#b"/><use transform="translate(0 1) scale(.5625)" xlink:href="#c"/><use transform="translate(0 1) scale(.5625)" xlink:href="#d"/><use transform="translate(0 -3) scale(.5625)" xlink:href="#e"/><use xlink:href="#f"/><use xlink:href="#g"/></svg>

<svg xmlns="http://www.w3.org/2000/svg" version="1.1" xmlns:xlink="http://www.w3.org/1999/xlink" preserveAspectRatio="none" x="0px" y="0px" width="72px" height="72px" viewBox="0 0 72 72">
<defs>
<g id="Layer0_0_FILL">
<path fill="#2F2F2F" stroke="none" d="
M 73.05 82.2
Q 73.5 79.9 72.65 77.45 70.6 71.75 62.1 72.35 58.95 72.55 59.05 74.2 59.15 75.25 61.5 75.55 62.55 75.65 65 75.65 67.15 75.85 68.1 76.9 68.95 77.85 69.1 79.45 69.2 80.9 68.7 82.15 68.1 83.7 66.4 84.3 64.25 84.8 63.2 85.3 62.3 85.7 62.5 86.75 62.6 87.1 62.85 87.3 63.3 87.7 64.2 87.8 64.75 87.85 65.7 87.9 66.85 88 67.15 88.1 67.95 88.25 68.45 88.75 69.4 89.65 69.6 91.45 69.75 93.25 69.05 94.4 68.45 95.4 66.1 96.8 63.3 98.45 62.8 98.95 62.05 99.65 61.65 100.5 61.15 101.55 61.7 102.2 62.2 102.8 63.5 102.8 65.1 102.8 66.8 101.85 68.65 100.85 70.6 98.55 72.45 96.35 73.35 94.35 75.25 90.25 72.3 86.5 71.75 85.8 72.25 84.35 72.95 82.8 73.05 82.2 Z"/>
</g>

<g id="Layer0_1_FILL">
<path fill="#FCC21B" stroke="none" d="
M 127.2 93.45
Q 127.2 66.4 118.75 46.25 103.3 9.5 64 9.5 24.65 9.5 9.2 46.25 0.75 66.4 0.75 93.45 0.75 103.85 19.25 111.2 37.8 118.55 64 118.55 90.15 118.55 108.7 111.2 127.2 103.85 127.2 93.45 Z"/>
</g>

<g id="Layer0_2_FILL">
<path fill="#2F2F2F" stroke="none" d="
M 85.95 48.6
Q 91.8 46.7 97.05 45.95 98.15 45.75 98.8 44.9 99.45 44.05 99.3 42.95 99.15 41.85 98.25 41.2 97.4 40.55 96.3 40.7 92.75 41.25 88.4 42.4 79.7 44.65 74.05 48.05 73.3 48.5 72.95 49.3 72.65 50.15 72.9 51 73.15 51.85 73.85 52.4 74.55 52.95 75.45 52.95 75.5 52.95 81.85 53.35 89.15 54.15 94.05 56.35
L 94.65 56.5
Q 95.55 56.65 96.3 56.25 97.15 55.85 97.5 55 97.95 54.05 97.55 53 97.2 51.95 96.2 51.5 91.3 49.35 85.95 48.6 Z"/>
</g>

<g id="Layer0_3_FILL">
<path fill="#2F2F2F" stroke="none" d="
M 50 48.55
Q 49.95 44.55 47.55 41.7 45.15 38.85 41.8 38.9 38.45 38.95 36.05 41.8 33.7 44.7 33.75 48.7 33.8 52.7 36.2 55.55 38.65 58.35 42 58.3 45.35 58.25 47.7 55.4 50.05 52.55 50 48.55 Z"/>
</g>

<g id="Layer0_4_FILL">
<path fill="#2F2F2F" stroke="none" d="
M 75.25 81.85
Q 75.2 78.35 72.45 76.1 71 74.9 68.4 74.5 66 74.2 63.9 74.7 62.3 75.1 61.25 75.8 59.9 76.65 60.05 77.6 60.2 78.5 61.65 78.8 62.45 78.95 64.15 78.95 67.85 78.95 69.2 80.05 69.9 80.55 69.95 82 70 82.8 69.25 83.75 68.2 85.1 66.05 85.6 64.95 85.9 64.3 86.6 63.55 87.45 63.85 88.45 64.25 89.7 65.65 89.95
L 66.25 90.1
Q 70.5 90.95 71.1 93 71.25 93.45 71.1 94.2 70.9 94.9 70.65 95.2 69.5 96.6 67.8 97.35 66.4 97.95 64.1 98.3 60.05 98.8 60.1 100.35 60.15 101.35 61.6 101.95 62.8 102.4 64.2 102.4 71.6 102.4 74.8 98.5 77 95.85 76.4 92.2 75.95 89.5 72.55 87.4 75.35 84.7 75.25 81.85 Z"/>
</g>

<g id="Layer0_5_MEMBER_0_MEMBER_0_FILL">
<path fill="#D7598B" stroke="none" d="
M 60.25 38.6
Q 59.65 36.5 58.95 35.35 58 33.7 56.5 32.95 55.05 32.25 53.15 32.4 51.35 32.55 49.9 33.4 47.65 34.7 46.8 37.2 46.05 39.5 46.6 42.25 46.8 43.2 47.4 45.1 47.6 45.55 48.4 47.4 49 49.1 48.45 49.65 48.4 49.7 48 49.9 47.7 50 47.7 50.25 47.75 50.8 48.5 51.25 52.7 53.85 59.75 52.95 62.2 52.65 64.45 51.5 67 50.2 68.15 48.3 69.1 46.8 69.1 45 69.15 43.15 68.15 41.7 67.1 40.1 65.4 39.4 63.75 38.7 61.95 39.05 61.2 39.2 60.95 39.2 60.45 39.15 60.25 38.6 Z"/>
</g>

<path id="Layer0_6_1_STROKES" stroke="#2F2F2F" stroke-width="2" stroke-linejoin="round" stroke-linecap="round" fill="none" d="
M 23.8 17.4
Q 18.6 18.55 15.8 22.95"/>
</defs>

<g id="Layer_1">
<g transform="matrix( 0.5625, 0, 0, 0.5625, 0,0) ">
<use xlink:href="#Layer0_0_FILL"/>
</g>

<g transform="matrix( 0.5625, 0, 0, 0.5625, 0,0) ">
<use xlink:href="#Layer0_1_FILL"/>
</g>

<g transform="matrix( 0.5625, 0, 0, 0.5625, 0,1) ">
<use xlink:href="#Layer0_2_FILL"/>
</g>

<g transform="matrix( 0.5625, 0, 0, 0.5625, 0,1) ">
<use xlink:href="#Layer0_3_FILL"/>
</g>

<g transform="matrix( 0.5625, 0, 0, 0.5625, 0,-3) ">
<use xlink:href="#Layer0_4_FILL"/>
</g>

<g transform="matrix( 1, 0, 0, 1, 0,0) ">
<use xlink:href="#Layer0_5_MEMBER_0_MEMBER_0_FILL"/>
</g>

<g transform="matrix( 1, 0, 0, 1, 0,0) ">
<use xlink:href="#Layer0_6_1_STROKES"/>
</g>
</g>
</svg>
